public/assets/5red.svg

<svg width="163" height="167" viewBox="0 0 163 167" fill="none" xmlns="http://www.w3.org/2000/svg">
<g filter="url(#filter0_d)">
<path d="M29.0424 126.459L42.043 27.4585L128.685 19.37L128.685 137.459L29.0424 126.459Z" fill="#FFF1F0"/>
<path d="M108.431 53.9583L107.331 52.7583L95.6313 53.5583H79.5313L73.2313 53.1583L71.3313 55.1583L70.8313 86.5583L71.9313 87.9583L82.8313 89.7583C87.0313 90.4583 88.7313 91.8583 88.7313 94.5583C88.7313 97.8583 85.6313 99.6583 80.1313 99.6583C75.8313 99.6583 71.7313 99.0583 67.3313 97.7583L66.0312 99.0583L66.9313 113.058C70.7313 113.858 75.9313 114.458 79.8313 114.458C96.3313 114.458 107.331 105.658 107.331 92.3583C107.331 83.4583 102.431 78.3583 91.8313 76.0583L85.8313 74.7583L86.0313 68.6583H93.9313L105.031 70.1583L106.331 68.7583L108.431 53.9583Z" fill="#EB6D73"/>
</g>
<defs>
<filter id="filter0_d" x="0" y="0" width="162.031" height="166.71" filterUnits="userSpaceOnUse" color-interpolation-filters="sRGB">
<feFlood flood-opacity="0" result="BackgroundImageFix"/>
<feColorMatrix in="SourceAlpha" type="matrix" values="0 0 0 0 0 0 0 0 0 0 0 0 0 0 0 0 0 0 127 0"/>
<feOffset/>
<feGaussianBlur stdDeviation="5"/>
<feColorMatrix type="matrix" values="0 0 0 0 0 0 0 0 0 0 0 0 0 0 0 0 0 0 0.25 0"/>
<feBlend mode="normal" in2="BackgroundImageFix" result="effect1_dropShadow"/>
<feBlend mode="normal" in="SourceGraphic" in2="effect1_dropShadow" result="shape"/>
</filter>
</defs>
</svg>

<svg width="163" height="167" fill="none" xmlns="http://www.w3.org/2000/svg"><g filter="url(#filter0_d)"><path d="M29.042 126.459l13.001-99 86.642-8.089v118.089l-99.643-11z" fill="#FFF1F0"/><path d="M108.431 53.958l-1.1-1.2-11.7.8h-16.1l-6.3-.4-1.9 2-.5 31.4 1.1 1.4 10.9 1.8c4.2.7 5.9 2.1 5.9 4.8 0 3.3-3.1 5.1-8.6 5.1-4.3 0-8.4-.6-12.8-1.9l-1.3 1.3.9 14c3.8.8 9 1.4 12.9 1.4 16.5 0 27.5-8.8 27.5-22.1 0-8.9-4.9-14-15.5-16.3l-6-1.3.2-6.1h7.9l11.1 1.5 1.3-1.4 2.1-14.8z" fill="#EB6D73"/></g><defs><filter id="filter0_d" x="0" y="0" width="162.031" height="166.71" filterUnits="userSpaceOnUse" color-interpolation-filters="sRGB"><feFlood flood-opacity="0" result="BackgroundImageFix"/><feColorMatrix in="SourceAlpha" values="0 0 0 0 0 0 0 0 0 0 0 0 0 0 0 0 0 0 127 0"/><feOffset/><feGaussianBlur stdDeviation="5"/><feColorMatrix values="0 0 0 0 0 0 0 0 0 0 0 0 0 0 0 0 0 0 0.25 0"/><feBlend in2="BackgroundImageFix" result="effect1_dropShadow"/><feBlend in="SourceGraphic" in2="effect1_dropShadow" result="shape"/></filter></defs></svg>
